X:1
T:Title
%%score { ( 1 3 5 ) | ( 2 4 ) }
L:1/8
M:4/4
K:D
V:1 treble nm="Grand Piano"
V:3 treble 
V:5 treble 
V:2 bass 
V:4 bass 
V:1
 z4 z2[Q:1/4=116] [DF]>[EG] | [FA]2 [FB]2 [Fc]2 [Fd]2 | [A,DF]6 z2 | %3
 [A,DF]2 [D=F]>[D^F] [DB]2 [A,DF]2 | [A,CG]6 [CE]>[DF] | [EG]2 [FA][FA] [GB]2 [Gc]2 | %6
[M:7/8] [Fe]2 [Fd]2 A3 |[M:1/8] F |[M:4/4] E2 A2 c2 B2 | [CA]6 z2 | %10
 [CG]2 [=CF]2 [^CG]2 (3[CE][DF][EG] | [FA]2 [=F^G]2 [^FA]2 z2 | B2 ^A>B [D=Ac]2 [DGB]2 | %13
[M:3/4] [FA]6 |[M:1/4] [A,EG]2 |[M:4/4] [A,DF]2 [A,=CF]2 [A,^CG]2 [A,CG]2 | ^G2 G2 A2 B2 | %17
 c2 [CE]2 [DF]2 [DB]2 |[M:3/4] [A,CA]6 |[M:1/4] A2 |[M:4/4] [Fd]3 D D2 [CE]2 | %21
 [DF]>[EG] [FA]4 [FA]2 | [DGB]2 [DGd]2 [FA][A,EG][A,DF][A,DA] |[M:3/4] [CE]2 [=C^D]2 [^CE]2 | %24
[M:1/4] (3ABc |[M:4/4] [Fd]3 D D2 [CE]2 | [DF]>[EG] [FA]4 F2 | E2 A2 B2 c2 |[M:3/4] [A,CA]6 | %29
[M:1/4] A2 |[M:4/4] A3 A A2 A2 | c>B A4 A2 | c2 c2 d2 ^d2 |[M:3/4] e6[K:bass] | %34
[M:1/4][K:treble] [GA]2 |[M:4/4] z4 d4 | B2 A2 G2 B,-[B,E] | [DA]2 [DF]2 F3 E |[M:3/4] D6 |] %39
V:2
 z4 z2 [D,A,]>[D,A,] | [D,A,]2 [A,,A,]2 [D,A,]2 [A,,A,]2 | D,2 C,>B,, A,,2 z2 | %3
 D,2 [A,,A,]>[A,,A,] [D,F,]2 A,,2 | E,2 C,2 A,,2 [A,,A,]2 | %5
 [A,,A,]2 [A,,A,][A,,A,] [A,,A,]2 [A,,A,]2 |[M:7/8] [D,A,]2 [D,A,]2 [D,F,D]3 |[M:1/8] [^D,A,=C] | %8
[M:4/4] [E,A,C]2 [E,A,C]2 [E,A,E]2 [E,^G,D]2 | z2 E,>E, A,2 z2 | %10
 [A,,E,]2 [A,,^D,]2 [A,,E,]2 (3:2:2[A,,A,]2 [C,A,] | [D,D]2 [D,D]2 [D,D]2 z2 | %12
 [G,DG]2 [G,CG]>[G,DG][K:bass] [G,,G,]2 [B,,G,]2 |[M:3/4] [D,D]2 C,>E, D,2 |[M:1/4] A,,2 | %15
[M:4/4] D,2 ^D,2 E,2 A,,2 | [E,B,D]2 [=F,B,D]2 [^F,A,D]2 [=F,A,^D]2 | %17
 [E,A,E]2 [A,,A,]2 [E,^G,]2 [E,G,]2 |[M:3/4] A,,6 |[M:1/4] A,2 | %20
[M:4/4] [D,A,]3 [D,F,] [D,F,]2 [A,,A,]2 | [D,A,]>[D,A,] [D,D]4 [D,D]2 | %22
 [G,,G,]2 [B,,B,]2 [D,D]D,D,F,, |[M:3/4] [A,,A,]2 [A,,A,]2 [A,,A,]2 |[M:1/4] [A,G]2 | %25
[M:4/4] [D,A,]3 [D,F,] [D,F,]2 [A,,A,]2 | [D,A,]>[D,A,] [D,D]4 [^D,A,=C]2 | %27
 [E,A,C]2 [E,A,C]2 [E,^G,D]2 [E,G,E]2 |[M:3/4] A,,6 |[M:1/4] A,2 | %30
[M:4/4] A,3 A, A,2[K:treble] [A,C]2 | [A,EA]>[A,DA] [A,CG]4 [A,CG]2 | %32
 [A,EG]2 [A,EG]2 [A,DF]2 [A,=CF]2 |[M:3/4] [CG]6 |[M:1/4][K:bass] [C,A,]2 | %35
[M:4/4] [D,A,]2 [C,^A,]2 [B,,B,]2 [F,A,]2 | [G,B,D]2 [F,B,^D]2 [E,B,E]2 z G, | %37
 [A,,F,]2 [A,,A,]2 [A,,A,]3 [A,,G,] |[M:3/4] [D,F,]6 |] %39
V:3
 x8 | x8 | x8 | x8 | x8 | x8 |[M:7/8] x7 |[M:1/8] x |[M:4/4] x8 | A,2 z2 z4 | x8 | x8 | x8 | %13
[M:3/4] z2 A,4 |[M:1/4] x2 |[M:4/4] x8 | x8 | x8 |[M:3/4] x6 |[M:1/4] x2 |[M:4/4] x8 | x8 | x8 | %23
[M:3/4] x6 |[M:1/4] x2 |[M:4/4] x8 | x8 | x8 |[M:3/4] x6 |[M:1/4] x2 |[M:4/4] x8 | x8 | x8 | %33
[M:3/4] z2[K:bass] A,,2 B,,2 |[M:1/4][K:treble] x2 |[M:4/4] [Ff]2 [Fe]2 F2 z c | z4 z2 .[A,F]2 | %37
 z4 B,2 C2 |[M:3/4] x6 |] %39
V:4
 x8 | x8 | x8 | x8 | x8 | x8 |[M:7/8] x7 |[M:1/8] x |[M:4/4] x8 | A,,6 z2 | x8 | x8 | %12
 x4[K:bass] x4 |[M:3/4] x6 |[M:1/4] x2 |[M:4/4] x8 | x8 | x8 |[M:3/4] x6 |[M:1/4] x2 |[M:4/4] x8 | %21
 x8 | x8 |[M:3/4] x6 |[M:1/4] x2 |[M:4/4] x8 | x8 | x8 |[M:3/4] x6 |[M:1/4] x2 | %30
[M:4/4] x6[K:treble] x2 | x8 | x8 |[M:3/4] A,2 z2 z2 |[M:1/4][K:bass] x2 |[M:4/4] x8 | z4 z2 G,,2 | %37
 x8 |[M:3/4] x6 |] %39
V:5
 x8 | x8 | x8 | x8 | x8 | x8 |[M:7/8] x7 |[M:1/8] x |[M:4/4] x8 | x8 | x8 | x8 | x8 |[M:3/4] x6 | %14
[M:1/4] x2 |[M:4/4] x8 | x8 | x8 |[M:3/4] x6 |[M:1/4] x2 |[M:4/4] x8 | x8 | x8 |[M:3/4] x6 | %24
[M:1/4] x2 |[M:4/4] x8 | x8 | x8 |[M:3/4] x6 |[M:1/4] x2 |[M:4/4] x8 | x8 | x8 | %33
[M:3/4] x2[K:bass] x4 |[M:1/4][K:treble] x2 |[M:4/4] z4 z2 E2 | x8 | x8 |[M:3/4] x6 |] %39

